X: 1
T: Trouble
R: polka
M: 2/4
L: 1/8
K: Amaj
x8|:"A1"fedc A2 z1 A|fedc A2 z2 |fedc A2 z2| fedc A2 z1 A |
fedc d2 z1 d|fedc d2 z1 d|fedc d2 d2|d2 d2 d2 z1 a:|
|:"B1"B2 f2 B2 f2|ABBAB2 dc2- |c4 z2 z A| f2 a2 e2 f2 |
B2 f2 B2 f2| B2BABAdc|-cBA2 z2 de|1 f2 a2 e2 f2:|2 fedefede|
|:"A2"B4 b4| z4 b3 c1-|c3 ed3| ed3 ed3 |
B4 b4| z4 b3 c1-|c3 ed3|ed3 ed3:|
